src/main/webapp/data/abw.svg

<svg height="600" viewBox="0 0 27 18" width="900" xmlns="http://www.w3.org/2000/svg" xmlns:xlink="http://www.w3.org/1999/xlink"><path d="m0 0h27v18h-27z" fill="#4189dd"/><path d="m0 12h27v1h-27v1h27v1h-27z" fill="#f9d616"/><g fill="#fff" transform="translate(4 4)"><path id="a" d="m0-3 .707107 2.292893 2.292893.707107-2.292893.707107-.707107 2.292893-.707107-2.292893-2.292893-.707107 2.292893-.707107z"/><use fill="#d21034" transform="scale(.770376)" xlink:href="#a"/></g></svg>

<?xml version="1.0" encoding="UTF-8"?>
<svg xmlns="http://www.w3.org/2000/svg" xmlns:xlink="http://www.w3.org/1999/xlink" width="900" height="600" viewBox="0 0 27 18">
<path d="M0,0H27V18H0z" fill="#4189dd"/>
<path d="M0,12H27v1H0v1H27v1H0z" fill="#f9d616"/>
<g fill="#fff" transform="translate(4,4)">
<path id="s" d="M0,-3 0.707107,-0.707107 3,0 0.707107,0.707107 0,3 -0.707107,0.707107 -3,0 -0.707107,-0.707107z"/>
<use xlink:href="#s" transform="scale(0.770376)" fill="#d21034"/>
</g>
</svg>
